storage/app/icons/phosphoricons/thin/toolbox-thin.svg

<svg xmlns="http://www.w3.org/2000/svg" fill="currentColor" viewBox="0 0 256 256"><path d="M224 68h-52V56a20 20 0 0 0-20-20h-48a20 20 0 0 0-20 20v12H32a12 12 0 0 0-12 12v112a12 12 0 0 0 12 12h192a12 12 0 0 0 12-12V80a12 12 0 0 0-12-12M92 56a12 12 0 0 1 12-12h48a12 12 0 0 1 12 12v12H92ZM32 76h192a4 4 0 0 1 4 4v36h-40v-12a4 4 0 0 0-8 0v12H76v-12a4 4 0 0 0-8 0v12H28V80a4 4 0 0 1 4-4m192 120H32a4 4 0 0 1-4-4v-68h40v12a4 4 0 0 0 8 0v-12h104v12a4 4 0 0 0 8 0v-12h40v68a4 4 0 0 1-4 4"/></svg>

<svg xmlns="http://www.w3.org/2000/svg" viewBox="0 0 256 256" fill="currentColor"><path d="M224,68H172V56a20,20,0,0,0-20-20H104A20,20,0,0,0,84,56V68H32A12,12,0,0,0,20,80V192a12,12,0,0,0,12,12H224a12,12,0,0,0,12-12V80A12,12,0,0,0,224,68ZM92,56a12,12,0,0,1,12-12h48a12,12,0,0,1,12,12V68H92ZM32,76H224a4,4,0,0,1,4,4v36H188V104a4,4,0,0,0-8,0v12H76V104a4,4,0,0,0-8,0v12H28V80A4,4,0,0,1,32,76ZM224,196H32a4,4,0,0,1-4-4V124H68v12a4,4,0,0,0,8,0V124H180v12a4,4,0,0,0,8,0V124h40v68A4,4,0,0,1,224,196Z"/></svg>
